X: 21242
T: Keelaghan's Manta
R: reel
M: 4/4
K: Gmajor
GFGB dBga|bgaf gdBd|cAAG AEAB|ceag fdcA|GFGB dBga|bgaf gdBd|cBcA Bdeg|fdcA G2:|
Bddc d2GA|Bdgf gdBd|cBcB A2ag|fd (3ded cAFA|Bddc dBGA|Bdgf gdBd|cBcA Bdeg|fdcA G2:|

